X: 265
T: Pa laopuo
L: 1/8
M: 2/4
K: Bb
d'3d' [I:setbarnb 1]| 
f' e'd'2 | 
a c' d' c' | 
g fd2 | 
d' a c' d' | 
d'> c' b a | 
d' a g d | 
f4 |]

@@@ Tune index: 9139
